**kern	**kern	**dynam
*part1	*part1	*part1
*staff2	*staff1	*
*I"Piano	*	*
*clefF4	*clefG2	*
*k[f#c#]	*k[f#c#]	*
=1	=1	=1
*^	*	*
*	*^	*	*
8rccc>	4C#	[2.DD\	2e	.
4G 4A	.	.	.	.
.	4C#	.	.	.
4G 4A	.	.	.	.
.	4AA	.	4f#	.
8G 8A	.	.	.	.
=	=	=	=	=
8reee>	4D	2.DD\]	2d	.
4F# 4A	.	.	.	.
.	4D	.	.	.
4F# 4A	.	.	.	.
.	4AA	.	4f#	.
8F# 8A	.	.	.	.
*	*v	*v	*	*
=	=	=	=
8rccc>	4BB	2e	.
!	!	!LO:TX:a:i:t=cres.	!
4G#X 4d	.	.	.
.	4BB	.	.
4G# 4d	.	.	.
.	4EE	4b	.
8d> 8e>	.	.	.
=	=	=	=
8r>	4AA	2b-X	>
4d> 4e>	.	.	.
.	4AA	.	.
4d> 4e>	.	.	.
.	4A	4a	.
8c#> 8e>	.	.	.
=	=	=	=
8reee>	4AA	[2.d	] pp
4F#	.	.	.
.	4AA	.	.
4F#	.	.	.
.	4DD	.	.
8F#	.	.	.
=	=	=	=
8reee>	4AA	2.d])	.
4F#	.	.	.
.	4AA	.	.
4F#	.	.	.
.	4DD	.	.
8F#	.	.	.
=:|!	=:|!	=:|!	=:|!
qryy@	2.DD;: 2.AA:	2.r<yy	.
*v	*v	*	*
==	==	==
*-	*-	*-
!!!system-decoration: {(s1,s2)}
!!!RDF**kern: > = above
!!!RDF**kern: < = below
